X:1
T:Jubilate Deo
T:Hassler
T:Jubilate Deo
C:Hassler
%%score [ 1 2 3 4 ]
L:1/8
Q:1/2=120
M:4/2
K:Bb
V:1 treble nm="Soprano" snm="S."
V:2 treble nm="Alto" snm="A."
V:3 treble-8 transpose=-12 nm="Tenor" snm="T."
V:4 bass nm="Baritone" snm="Bar."
V:1
 c12 c4 | (F2 G2 A2 B2 c4) A4 | d8 c4 (d2 c2 | B2 A2 B4) A4 B4- | B2 A2 A2 GF G8 | %5
w: Ju- bi-|la- * * * * te|De- o o- *|* * * mnis ter-||
 A4 c2 B2 A2 B2 c2 A2 | B2 A2 F2 G2 A4 F4 | B2 c2 d2 B2 c2 A2 d4 | c8 z8 | c12 c4 | %10
w: ra, o- * * * * *|* * * * * mnis|ter- * * * * * *|ra,|ju- bi-|
 (F2 G2 A2 B2 c4) A4 | d8 c4 (d2 c2 | B2 A2 B4) A4 d4- | d2 cB c4 d8 | G8 z8 | z8 z4 f4 | %16
w: la- * * * * te|De- o o- *|* * * mnis ter-||ra:|can-|
 f2 e2 d2 c2 B2 c2 d2 e2 | f8 B8 | z4 B4 B2 A2 G2 F2 | E2 F2 G2 A2 B2 AG F2 G2 | A2 B2 c4 A4 c4 | %21
w: ta- * * * * * * *|* te,|can- ta- * * *||* * * te, can-|
 c2 B2 A2 G2 F2 G2 A4 | B8 z4 f4 | d4 d4 g8 | f8 z4 B4 | c6 c2 B4 B4 | d6 d2 c8 | z4 c4 c6 c2 | %28
w: ta- * * * * * *|te et|ex- sul- ta-|te et|psal- li- te, et|psal- li- te,|et psal- li-|
 A8 z4 c4- | c2 c2 c4 A4 A4 | d8 z4 d4 | e6 e2 d8 | z8 z4 B4 | c6 c2 B4 d4 | d2 c2 c8 =B4 | %35
w: te, psal-|* li- te Do- mi-|no in|ci- tha- ra,|in|ci- tha- ra, in|ci- * * tha-|
 c4 c4 e4 d4 | c8 _B8 | z16 | z16 | z8 z4 G4 | c8 A4 c4 | d6 d2 B8 | z8 z4 c4 | d8 B4 B4 | e12 e4 | %45
w: ra et vo- ci|psal- mi,|||et|tu- bis du-|cti- li- bus,|in|tu- bis du-|cti- li-|
 d8 z4 c4 | c4 A8 B4 | G6 G2 A8 | z4 A4 A4 A4 | B4 G4 (B2 c2 d2 e2 | f4) d4 d8 | z4 d4 d4 d4 | %52
w: bus, in|tu- bis du-|cti- li- bus,|et vo- ce|tu- bae cor- * * *|* ne- ae,|et vo- ce|
 e4 c4 (f2 e2 d2 c2 | B4) G4 A4 c4 | c4 c4 d4 c4 | (f2 e2 d2 c2 B4) B4 | A16 |] %57
w: tu- bae cor- * * *|* ne- ae, et|vo- ce tu- bae|cor- * * * * ne-|ae.|
V:2
 z16 | F12 F4 | (B,2 C2 D2 E2 F4) D4 | G8 F4 D4 | =E4 (F6 ED E4) | F16- | F8 z8 | z16 | C12 C4 | %9
w: |Ju- bi-|la- * * * * te|De- o o-|mnis ter- * * *|ra,|_||ju- bi-|
 (F,2 G,2 A,2 B,2 C4) A,4 | D8 C4 (D2 C2 | B,2 A,2 B,4) A,8 | B,8 C4 B,4- | B,4 G,4 A,4 B,4 | %14
w: la- * * * * te|De- o o- *|* * * mnis|ter- ra, ju-|* bi- la- te|
 D4 G,4 C4 D4 | E8 D8 | z4 F4 F2 E2 D2 C2 | B,2 C2 D2 E2 F4 G4- | G4 E4 G2 A2 B2 A2 | %19
w: De- o o- mnis|ter- ra,|can- ta- * * *|* * * * * te,|_ can- ta- * * *|
 G2 F2 E2 DC D8 | C8 z8 | z4 C4 A,4 A,4 | D8 C4 C4 | F4 F4 E2 F2 G2 A2 | B2 AG A4 G4 D4 | %25
w: |te,|et ex- sul-|ta- te, et|ex- sul- ta- * * *|* * * * te et|
 F6 F2 F4 F4 | B6 B2 G4 G4 | (A2 G2 F8) =E4 | (F2 G2 A2 F2 G8) | z8 z4 F4- | F2 F2 F4 D4 D4 | %31
w: psal- li- te, et|psal- li- te, et|psal- * * li-|te, _ _ _ _|psal-|* li- te Do- mi-|
 G8 z4 G4 | _A6 A2 G4 G4 | E2 D2 E2 F2 G2 =A2 B2 A2 | G4 G4 G8 | z4 E4 G4 G2 G2- | %36
w: no in|ci- tha- ra, in|ci- * * * * * * *|* tha- ra,|et vo- ce psal-|
 (G2 FE F4) G4 G4 | B4 =A4 G8 | F4 F4 G4 E4 | D8 =E8 | z4 C4 F8 | D4 F4 G6 G2 | E4 G4 F8- | %43
w: * * * * mi, et|vo- ce psal-|mi, et vo- ce|psal- mi,|et tu-|bis du- cti- li-|bus, in tu-|
 F8 (G6 F2 | E4) D4 C4 C4 | F4 F4 (E2 F2 G4) | C4 F8 F4- | F4 =E4 F8 | z4 F4 F4 F4 | D4 E4 F6 E2 | %50
w: * bis _|_ du- cti- li-|bus, in tu- * *|bis du- cti-|* li- bus,|et vo- ce|tu- bae cor- *|
 D2 C2 B,2 A,G, A,4 A,4 | =B,4 D4 D4 G4 | G4 F4 (D2 E2 F4-) | F4 =E4 F8- | F16- | F16- | F16 |] %57
w: * * * * * * ne-|ae, et vo- ce|tu- bae cor- * *|* ne- ae.|_|||
V:3
 z16 | z16 | z16 | z16 | c12 c4 | (F2 G2 A2 B2 c4) A4 | d8 c4 (d2 c2 | B2 A2 B4) A4 B4- | %8
w: ||||Ju- bi-|la- * * * * te|De- o o- *|* * * mnis ter-|
 B2 A2 A2 GF G8 | A16 | z16 | f12 f4 | (B2 c2 d2 e2 f4) d4 | g8 f4 (d2 c2 | B2 A2 B4) A4 B4- | %15
w: |ra,||ju- bi-|la- * * * * te|De- o o- *|* * * mnis ter-|
 (B2 AG A4) B8- | B16 | z8 z4 B4 | B2 A2 G2 F2 E2 F2 G2 A2 | B4 E4 z8 | z4 c4 c2 B2 A2 G2 | %21
w: * * * * ra,|_|can-|ta- * * * * * * *|* te,|can- ta- * * *|
 F2 G2 A2 B2 c4 F4 | z4 B4 A4 A4 | d8 c4 B4 | f6 f2 d4 B4 | A4 A4 d8 | B4 d4 e6 d2 | %27
w: * * * * * te,|et ex- sul-|ta- te et|psal- li- te, et|ex- sul- ta-|te, et psal- *|
 c2 B2 A2 GF G4 G4 | F4 c6 c2 c4 | A4 A4 (c6 BA | B4) A4 B6 B2 | G4 c4 (B2 c2 d2 B2 | %32
w: * * * * * * li-|te, psal- li- te|Do- mi- no _ _|_ in ci- tha-|ra, in ci- * * *|
 c4) d4 e4 d4 | c6 c2 d8 | e8 d6 d2 | c8 z8 | z8 z4 B4 | d4 d2 (d4 cB c4) | d4 A4 B2 G2 c4- | %39
w: * tha- ra, in|ci- tha- ra,|in ci- tha-|ra,|et|vo- ce psal- * * *|mi, et vo- ce psal-|
 (c2 =BA B4) c8 | z8 z4 F4 | B8 G4 B4 | c6 c2 A8 | z4 B4 B4 G4 | A4 B8 A4 | B4 F4 c8 | %46
w: * * * * mi,|et|tu- bis du-|cti- li- bus,|in tu- bis|du- cti- li-|bus, in tu-|
 A4 c4 d6 d2 | c8 z4 c4 | c4 c4 d8 | B8 d6 cB | A4 G8 ^F4 | G4 =B4 B4 B4 | c4 A4 (_B6 c2 | %53
w: bis du- cti- li-|bus, et|vo- ce tu-|bae cor- * *|* * ne-|ae, et vo- ce|tu- bae cor- *|
 d4) c4 c4 A4 | A4 A4 B4 A4 | (d2 e2 f2 e2 d4) d4 | c16 |] %57
w: * ne- ae, et|vo- ce tu- bae|cor- * * * * ne-|ae.|
V:4
 z16 | z16 | z16 | z16 | z16 | F,12 F,4 | (B,,2 C,2 D,2 E,2 F,4) D,4 | G,8 F,4 D,4 | %8
w: |||||Ju- bi-|la- * * * * te|De- o o-|
 =E,4 (F,6 E,D, E,4) | F,8 z8 | F,12 F,4 | (B,,2 C,2 D,2 E,2 F,4) D,4 | G,8 F,4 (G,2 F,2 | %13
w: mnis ter- * * *|ra,|ju- bi-|la- * * * * te|De- o o- *|
 E,2 D,2 E,4) D,4 G,4- | (G,2 F,2 E,2 D,2 C,8-) | C,8 B,,8- | B,,8 z8 | z4 B,4 B,2 A,2 G,2 F,2 | %18
w: * * * mnis ter-||* ra,|_|can- ta- * * *|
 E,2 F,2 G,2 A,2 B,4 E,4- | E,4 B,4 B,8 | F,16 | z4 F,4 F,2 E,2 D,2 C,2 | B,,2 C,2 D,2 E,2 F,8 | %23
w: * * * * * te,|_ can- ta-|te,|can- ta- * * *||
 B,,8 z4 E,4 | D,4 D,4 G,8 | F,4 F,4 B,6 B,2 | G,8 z4 C,4 | (F,6 E,D, C,4) C,4 | F,8 z8 | %29
w: te, et|ex- sul- ta-|te et psal- li-|te, et|psal- * * * li-|te,|
 z4 F,6 F,2 F,4 | D,4 D,4 G,8 | C,6 C,2 G,8 | F,4 F,4 E,4 G,4 | _A,6 A,2 (G,6 F,2 | %34
w: psal- li- te|Do- mi- no,|psal- li- te|Do- mi- no in|ci- tha- ra, _|
 E,4) C,4 G,4 G,4 | C,4 C4 C4 B,4 | _A,8 G,4 G,4 | G,4 F,4 E,8 | D,4 F,4 E,4 C,4 | G,8 C,8- | %40
w: _ in ci- tha-|ra, et vo- ce|psal- mi, et|vo- ce psal-|mi, et vo- ce|psal- mi,|
 C,8 z8 | z4 B,,4 E,8 | C,4 E,4 F,6 F,2 | D,4 B,,4 (E,6 D,2 | C,16) | (B,,2 C,2 D,2 B,,2 C,4) E,4 | %46
w: _|et tu-|bis du- cti- li-|bus, in tu- *||bis, _ _ _ _ in|
 F,8 D,4 B,,4 | C,6 C,2 F,8 | z4 F,4 F,4 F,4 | G,4 E,4 (B,,6 C,2 | D,6) D,2 D,8 | z4 G,4 G,4 G,4 | %52
w: tu- bis du-|cti- li- bus,|et vo- ce|tu- bae cor- *|* ne- ae,|et vo- ce|
 C,4 F,4 B,,8- | B,,4 C,4 F,4 F,4 | F,4 F,4 D,4 F,4 | B,,12 B,,4 | F,16 |] %57
w: tu- bae cor-|* ne- ae, et|vo- ce tu- bae|cor- ne-|ae.|

